X: 12433
T: Farewell Marian
R: waltz
M: 3/4
K: Fmajor
|:A>d A=B ^cd|e2 A2 A2|f>g fe de|^c2 A2 A2|
Ad AG AF|Bd BA BG|FA F2 EF/E/|D6:|
A2 c2- cA|G6|A2 c2 d2|e2 A2 A2|
f2 g2- gf|fg/f/ e2 d2|ce c2 =Bc/B/|A6|
A>d A=B ^cd|e2 A2 A2|f>g fe de|^c2 A2 A2|
Ad AG A2|Bd BA B2|FA F2 E2|D6||

